X: 29278
T: New Old, The
R: reel
M: 4/4
K: Dmajor
d|{e}dcAF GEFD|~=C3 D {F}ECCD|{F}ED(3EFG Ad{e}dc|Adfe ~d3 A|
dcAF GEFD|~=C3 D {F}E=CCD|{F}ED(3EFG Ad{e}dc|Adfe ~d3 e||
fede faed|cA (3AAA (3Bcd ef|{g}fede fgaf|gage fdde|
f2 ~f2 afed|cA (3AAA cBcA|~G3 A (3Bcd AF|GFEC D3d|

